X:1
T:Jotham, 87.87 D
T:Jotham, 87.87 D
T:Chester G. Allen, 1869
T:Public Domain Courtesy of the Cyber Hymnal™
C:Chester G. Allen, 1869
Z:Public Domain
Z:Courtesy of the Cyber Hymnal™
%%score ( 1 2 ) ( 3 4 )
L:1/8
Q:1/4=90
M:3/4
K:G
V:1 treble 
V:2 treble 
V:3 bass 
V:4 bass 
V:1
 [GB]>[GB] | [GB]3 [Gc] [GB][DA] | [DG]2 D2 [GB]>[Ac] | [Bd]3 [GB] [Ac][GB] | [FA]4 [GB]>[GB] | %5
 [GB]3 [Gc] [GB][DA] | [DG]2 D2 [GB]>[Ac] | [Bd]3 [Ac] [GB][FA] | G4 [Ac]>[GB] | [FA]3 D [DG][DA] | %10
 [DB]2 [DA]2 [GB]>[Fc] | [Gd]3 [GB] [Ac][GB] | [FA]4 [GB]>[GB] | [GB]3 [Gc] [GB][DA] | %14
 [DG]2 D2 [GB]>[Ac] | [Bd]3 [Ac] [GB][FA] | G4 |] %17
V:2
 x2 | x6 | x2 D2 x2 | x6 | x6 | x6 | x2 D2 x2 | x6 | G4 x2 | x3 D x2 | x6 | x6 | x6 | x6 | %14
 x2 D2 x2 | x6 | G4 |] %17
V:3
 [G,D]>[G,D] | [G,D]3 [G,E] [G,D][G,C] | [G,B,]2 [G,B,]2 [G,D]>[G,D] | [G,D]3 [G,D] [F,D][G,D] | %4
 [D,D]4 [G,D]>[G,D] | [G,D]3 [G,E] [G,D][G,C] | [G,B,]2 [G,B,]2 [G,D]>[G,D] | %7
 [G,D]3 [C,E] [D,D][D,C] | [G,,B,]4 [D,D]>[D,D] | [D,D]3 [D,F,] [B,,G,][D,F,] | %10
 G,2 [D,F,]2 [G,D]>[A,D] | [B,D]3 [G,D] [F,D][G,D] | [D,D]4 [G,D]>[G,D] | [G,D]3 [G,E] [G,D][G,C] | %14
 [G,B,]2 [G,B,]2 [G,D]>[G,D] | [G,D]3 [C,E] [D,D][D,C] | [G,,B,]4 |] %17
V:4
 x2 | x6 | x6 | x6 | x6 | x6 | x6 | x6 | x6 | x6 | G,2 x4 | x6 | x6 | x6 | x6 | x6 | x4 |] %17

